docs/static/img/swan-opensource.svg

<?xml version="1.0" encoding="UTF-8"?>
<svg width="232px" height="86px" viewBox="0 0 232 86" version="1.1" xmlns="http://www.w3.org/2000/svg" xmlns:xlink="http://www.w3.org/1999/xlink">
    <title>Artboard</title>
    <g id="Artboard" stroke="none" stroke-width="1" fill="none" fill-rule="evenodd">
        <path d="M0.112941558,36.040264 C1.02520421,45.84684 8.28951752,52 19.6826154,52 C31.3011392,52 39.2571429,45.550856 39.2571429,35.937304 C39.2571429,26.941616 34.3927675,23.295064 24.1080912,21.207368 C23.8739352,21.15984 23.7373701,21.131656 23.6007012,21.104304 C23.2550275,21.034936 22.9084184,20.970248 20.9833089,20.60916 C13.1726004,19.143904 10.7383341,17.879888 10.7383341,14.330472 C10.7383341,10.872888 14.097896,8.421712 19.4084461,8.421712 C24.9137624,8.421712 28.0472749,10.817768 28.6382252,14.943968 L28.7747902,15.89744 L37.8934673,15.89744 L37.7905759,14.691768 C37.0334403,5.817864 29.5580124,2.84217094e-14 19.8654296,2.84217094e-14 C9.17895697,2.84217094e-14 1.57067442,5.741112 1.57067442,14.330472 C1.57067442,22.95696 6.23033734,26.279448 16.6683116,28.455336 C16.8361597,28.49028 16.922838,28.508584 17.0095162,28.526576 C17.224549,28.571296 17.4399975,28.614352 18.8970028,28.906592 C27.3624751,30.604704 29.9980553,32.056856 29.9980553,36.302032 C29.9980553,40.6432 26.3731582,43.487184 20.0482438,43.487184 C13.6473561,43.487184 10.0963538,40.866592 9.35563926,35.777144 L9.21720349,34.826168 L0,34.826168 L0.112941558,36.040264 Z M149.098031,50.599432 L157.209827,50.599432 L157.209827,41.793544 L149.098031,41.793544 C140.725369,41.793544 134.524859,34.249488 134.524859,25.31152 C134.524859,16.486184 141.283477,8.805992 150.354554,8.805992 C160.80687,8.805992 166.963729,14.18872 166.963729,23.137088 L166.963729,50.784344 L175.795765,50.784344 L175.795765,23.137088 C175.795765,9.049248 165.4453,2.84217094e-14 150.354554,2.84217094e-14 C136.12955,2.84217094e-14 125.691784,11.860472 125.691784,25.31152 C125.691784,38.769224 135.416585,50.599432 149.098031,50.599432 Z M229,19.880744 C229,8.366592 221.436959,2.84217094e-14 210.112663,2.84217094e-14 C204.118976,2.84217094e-14 199.059626,2.43516 196.107993,6.205576 L196.107993,1.3866632 L186.644058,1.3866632 L186.644058,50.786632 L196.107993,50.786632 L196.107993,21.42972 C196.107993,14.278784 201.402226,8.96376 208.371823,8.96376 C214.719913,8.96376 219.874879,13.654784 219.874879,20.336264 L219.874879,50.786632 L229,50.786632 L229,19.880744 Z M82.9866342,14.181128 L71.3663437,50.786632 L60.4970568,50.786632 L45.1112508,1.3866736 L55.237121,1.3866736 L66.1508902,38.642656 L78.1041749,1.3866736 L87.8767844,1.3866736 L99.7433909,38.64276 L110.744462,1.3866736 L120.870436,1.3866736 L105.389949,50.786632 L94.5203505,50.786632 L82.9866342,14.181128 Z M22.9839282,74.0909091 C22.9839282,76.4417614 22.5453629,78.4534801 21.6682322,80.1260653 C20.7911015,81.7986506 19.5979197,83.0788352 18.0886868,83.9666193 C16.5794538,84.8544034 14.8695817,85.2982955 12.9590703,85.2982955 C11.0485589,85.2982955 9.33868677,84.8526278 7.82945381,83.9612926 C6.32022086,83.0699574 5.12703904,81.7879972 4.24990836,80.1154119 C3.37277768,78.4428267 2.93421234,76.4346591 2.93421234,74.0909091 C2.93421234,71.7400568 3.37277768,69.7283381 4.24990836,68.0557528 C5.12703904,66.3831676 6.32022086,65.102983 7.82945381,64.2151989 C9.33868677,63.3274148 11.0485589,62.8835227 12.9590703,62.8835227 C14.8695817,62.8835227 16.5794538,63.3274148 18.0886868,64.2151989 C19.5979197,65.102983 20.7911015,66.3831676 21.6682322,68.0557528 C22.5453629,69.7283381 22.9839282,71.7400568 22.9839282,74.0909091 Z M19.0102067,74.0909091 C19.0102067,72.4360795 18.7527493,71.0387074 18.2378345,69.8987926 C17.7229197,68.7588778 17.0109169,67.8959517 16.101826,67.3100142 C15.1927351,66.7240767 14.1451498,66.431108 12.9590703,66.431108 C11.7729907,66.431108 10.7254055,66.7240767 9.81631461,67.3100142 C8.9072237,67.8959517 8.19522086,68.7588778 7.68030609,69.8987926 C7.16539131,71.0387074 6.90793393,72.4360795 6.90793393,74.0909091 C6.90793393,75.7457386 7.16539131,77.1431108 7.68030609,78.2830256 C8.19522086,79.4229403 8.9072237,80.2858665 9.81631461,80.871804 C10.7254055,81.4577415 11.7729907,81.7507102 12.9590703,81.7507102 C14.1451498,81.7507102 15.1927351,81.4577415 16.101826,80.871804 C17.0109169,80.2858665 17.7229197,79.4229403 18.2378345,78.2830256 C18.7527493,77.1431108 19.0102067,75.7457386 19.0102067,74.0909091 Z M28.3790895,85 L28.3790895,63.1818182 L36.5609077,63.1818182 C38.2370441,63.1818182 39.6450696,63.4943182 40.7849844,64.1193182 C41.9248992,64.7443182 42.7878253,65.6019176 43.3737628,66.6921165 C43.9597003,67.7823153 44.2526691,69.0198864 44.2526691,70.4048295 C44.2526691,71.8039773 43.9579248,73.046875 43.3684361,74.1335227 C42.7789475,75.2201705 41.9089191,76.0742188 40.7583509,76.6956676 C39.6077827,77.3171165 38.1908793,77.6278409 36.5076407,77.6278409 L31.0850554,77.6278409 L31.0850554,74.3785511 L35.9749702,74.3785511 C36.9550839,74.3785511 37.7576407,74.2080966 38.3826407,73.8671875 C39.0076407,73.5262784 39.471064,73.0575284 39.7729106,72.4609375 C40.0747571,71.8643466 40.2256804,71.1789773 40.2256804,70.4048295 C40.2256804,69.6306818 40.0747571,68.9488636 39.7729106,68.359375 C39.471064,67.7698864 39.0058651,67.3100142 38.377314,66.9797585 C37.7487628,66.6495028 36.9408793,66.484375 35.9536634,66.484375 L32.3315043,66.484375 L32.3315043,85 L28.3790895,85 Z M49.3282281,85 L49.3282281,63.1818182 L63.518569,63.1818182 L63.518569,66.4950284 L53.2806429,66.4950284 L53.2806429,72.4183239 L62.7834838,72.4183239 L62.7834838,75.7315341 L53.2806429,75.7315341 L53.2806429,81.6867898 L63.6037963,81.6867898 L63.6037963,85 L49.3282281,85 Z M87.1310598,63.1818182 L87.1310598,85 L83.6154348,85 L73.3348951,70.1384943 L73.1537871,70.1384943 L73.1537871,85 L69.2013723,85 L69.2013723,63.1818182 L72.7383042,63.1818182 L83.0081905,78.0539773 L83.1999519,78.0539773 L83.1999519,63.1818182 L87.1310598,63.1818182 Z M114.018684,69.1796875 C113.919252,68.2492898 113.501993,67.524858 112.766908,67.006392 C112.031823,66.4879261 111.078343,66.2286932 109.906468,66.2286932 C109.082604,66.2286932 108.375928,66.352983 107.786439,66.6015625 C107.196951,66.850142 106.745956,67.1875 106.433456,67.6136364 C106.120956,68.0397727 105.961155,68.5262784 105.954053,69.0731534 C105.954053,69.5276989 106.058811,69.921875 106.268328,70.2556818 C106.477845,70.5894886 106.763712,70.871804 107.125928,71.1026278 C107.488144,71.3334517 107.889422,71.5269886 108.329763,71.6832386 C108.770104,71.8394886 109.213996,71.9708807 109.661439,72.0774148 L111.706894,72.5887784 C112.530757,72.7805398 113.324436,73.0397727 114.087931,73.3664773 C114.851425,73.6931818 115.536794,74.1051136 116.144039,74.6022727 C116.751283,75.0994318 117.232462,75.6995739 117.587576,76.4026989 C117.942689,77.1058239 118.120246,77.9296875 118.120246,78.8742898 C118.120246,80.1526989 117.793542,81.2766335 117.140132,82.2460938 C116.486723,83.215554 115.543897,83.971946 114.311652,84.5152699 C113.079408,85.0585938 111.589706,85.3302557 109.842547,85.3302557 C108.145104,85.3302557 106.673158,85.0674716 105.426709,84.5419034 C104.18026,84.0163352 103.207249,83.2492898 102.507675,82.240767 C101.808101,81.2322443 101.429905,80.0035511 101.373087,78.5546875 L105.261581,78.5546875 C105.318399,79.3146307 105.552774,79.946733 105.964706,80.4509943 C106.376638,80.9552557 106.914635,81.3316761 107.578698,81.5802557 C108.24276,81.8288352 108.986723,81.953125 109.810587,81.953125 C110.669962,81.953125 111.424578,81.8235085 112.074436,81.5642756 C112.724294,81.3050426 113.233882,80.9428267 113.603201,80.4776278 C113.972519,80.012429 114.160729,79.4673295 114.167831,78.8423295 C114.160729,78.2741477 113.993826,77.8036222 113.667121,77.4307528 C113.340417,77.0578835 112.884095,76.7453835 112.298158,76.4932528 C111.71222,76.2411222 111.028627,76.015625 110.247377,75.8167614 L107.765132,75.1775568 C105.968257,74.7159091 104.549578,74.0145597 103.509095,73.0735085 C102.468613,72.1324574 101.948371,70.8806818 101.948371,69.3181818 C101.948371,68.0326705 102.298158,66.9069602 102.997732,65.9410511 C103.697306,64.975142 104.650786,64.2240767 105.858172,63.6878551 C107.065559,63.1516335 108.432746,62.8835227 109.959735,62.8835227 C111.50803,62.8835227 112.86634,63.1516335 114.034664,63.6878551 C115.202988,64.2240767 116.120956,64.9662642 116.78857,65.9144176 C117.456184,66.862571 117.800644,67.9509943 117.821951,69.1796875 L114.018684,69.1796875 Z M142.776771,74.0909091 C142.776771,76.4417614 142.338206,78.4534801 141.461075,80.1260653 C140.583944,81.7986506 139.390762,83.0788352 137.88153,83.9666193 C136.372297,84.8544034 134.662424,85.2982955 132.751913,85.2982955 C130.841402,85.2982955 129.13153,84.8526278 127.622297,83.9612926 C126.113064,83.0699574 124.919882,81.7879972 124.042751,80.1154119 C123.16562,78.4428267 122.727055,76.4346591 122.727055,74.0909091 C122.727055,71.7400568 123.16562,69.7283381 124.042751,68.0557528 C124.919882,66.3831676 126.113064,65.102983 127.622297,64.2151989 C129.13153,63.3274148 130.841402,62.8835227 132.751913,62.8835227 C134.662424,62.8835227 136.372297,63.3274148 137.88153,64.2151989 C139.390762,65.102983 140.583944,66.3831676 141.461075,68.0557528 C142.338206,69.7283381 142.776771,71.7400568 142.776771,74.0909091 Z M138.803049,74.0909091 C138.803049,72.4360795 138.545592,71.0387074 138.030677,69.8987926 C137.515762,68.7588778 136.80376,67.8959517 135.894669,67.3100142 C134.985578,66.7240767 133.937993,66.431108 132.751913,66.431108 C131.565833,66.431108 130.518248,66.7240767 129.609157,67.3100142 C128.700066,67.8959517 127.988064,68.7588778 127.473149,69.8987926 C126.958234,71.0387074 126.700777,72.4360795 126.700777,74.0909091 C126.700777,75.7457386 126.958234,77.1431108 127.473149,78.2830256 C127.988064,79.4229403 128.700066,80.2858665 129.609157,80.871804 C130.518248,81.4577415 131.565833,81.7507102 132.751913,81.7507102 C133.937993,81.7507102 134.985578,81.4577415 135.894669,80.871804 C136.80376,80.2858665 137.515762,79.4229403 138.030677,78.2830256 C138.545592,77.1431108 138.803049,75.7457386 138.803049,74.0909091 Z M161.925483,63.1818182 L165.877898,63.1818182 L165.877898,77.4360795 C165.877898,78.9985795 165.510356,80.3728693 164.77527,81.5589489 C164.040185,82.7450284 163.00858,83.6700994 161.680455,84.3341619 C160.35233,84.9982244 158.800483,85.3302557 157.024915,85.3302557 C155.242245,85.3302557 153.686847,84.9982244 152.358722,84.3341619 C151.030597,83.6700994 150.000768,82.7450284 149.269233,81.5589489 C148.537699,80.3728693 148.171932,78.9985795 148.171932,77.4360795 L148.171932,63.1818182 L152.124347,63.1818182 L152.124347,77.1058239 C152.124347,78.0149148 152.324986,78.8245739 152.726265,79.5348011 C153.127543,80.2450284 153.693949,80.8007813 154.425483,81.2020597 C155.157018,81.6033381 156.023495,81.8039773 157.024915,81.8039773 C158.026336,81.8039773 158.894589,81.6033381 159.629674,81.2020597 C160.364759,80.8007813 160.931165,80.2450284 161.328893,79.5348011 C161.72662,78.8245739 161.925483,78.0149148 161.925483,77.1058239 L161.925483,63.1818182 Z M211.66467,70.5433239 L207.680295,70.5433239 C207.566658,69.8899148 207.357141,69.309304 207.051743,68.8014915 C206.746346,68.293679 206.366374,67.8622159 205.911829,67.5071023 C205.457283,67.1519886 204.940593,66.8838778 204.361758,66.7027699 C203.782922,66.5216619 203.159698,66.431108 202.492084,66.431108 C201.306005,66.431108 200.254868,66.7276278 199.338675,67.3206676 C198.422482,67.9137074 197.705153,68.7801847 197.186687,69.9200994 C196.668221,71.0600142 196.408988,72.4502841 196.408988,74.0909091 C196.408988,75.7599432 196.669996,77.1644176 197.192013,78.3043324 C197.71403,79.4442472 198.43136,80.3036222 199.344002,80.8824574 C200.256644,81.4612926 201.302454,81.7507102 202.481431,81.7507102 C203.13484,81.7507102 203.747411,81.6637074 204.319144,81.4897017 C204.890877,81.315696 205.405792,81.0582386 205.863888,80.7173295 C206.321985,80.3764205 206.709059,79.9573864 207.02511,79.4602273 C207.341161,78.9630682 207.559556,78.3948864 207.680295,77.7556818 L211.66467,77.7769886 C211.515522,78.8139205 211.194144,79.7869318 210.700536,80.6960227 C210.206928,81.6051136 209.562397,82.4058949 208.766942,83.0983665 C207.971488,83.7908381 207.04109,84.3306108 205.975749,84.7176847 C204.910408,85.1047585 203.72788,85.2982955 202.428164,85.2982955 C200.51055,85.2982955 198.798903,84.8544034 197.293221,83.9666193 C195.787539,83.0788352 194.601459,81.796875 193.734982,80.1207386 C192.868505,78.4446023 192.435266,76.4346591 192.435266,74.0909091 C192.435266,71.7400568 192.872056,69.7283381 193.745636,68.0557528 C194.619215,66.3831676 195.808846,65.102983 197.314528,64.2151989 C198.820209,63.3274148 200.524755,62.8835227 202.428164,62.8835227 C203.642653,62.8835227 204.771914,63.0539773 205.815948,63.3948864 C206.859982,63.7357955 207.79038,64.2347301 208.607141,64.8916903 C209.423903,65.5486506 210.096843,66.3512074 210.625962,67.2993608 C211.155082,68.2475142 211.501317,69.3288352 211.66467,70.5433239 Z M216.942643,85 L216.942643,63.1818182 L231.132984,63.1818182 L231.132984,66.4950284 L220.895058,66.4950284 L220.895058,72.4183239 L230.397899,72.4183239 L230.397899,75.7315341 L220.895058,75.7315341 L220.895058,81.6867898 L231.218212,81.6867898 L231.218212,85 L216.942643,85 Z M180.008855,63.1818182 C181.684991,63.1818182 183.093017,63.4730114 184.232932,64.0553977 C185.372846,64.6377841 186.235773,65.4527699 186.82171,66.5003551 C187.407648,67.5479403 187.700616,68.7677557 187.700616,70.1598011 C187.700616,71.5589489 187.404096,72.7716619 186.811057,73.7979403 C186.218017,74.8242188 185.346213,75.6161222 184.195645,76.1736506 C184.060674,76.2390529 183.922088,76.3006192 183.779885,76.3583494 L188.499622,85 L184.089111,85 L179.801037,77.0098182 L175.779452,77.0099432 L175.779452,85 L171.827037,85 L171.827037,63.1818182 L180.008855,63.1818182 Z M179.401611,66.484375 L175.779452,66.484375 L175.779452,73.7286932 L179.422917,73.7286932 C180.403031,73.7286932 181.205588,73.5919744 181.830588,73.3185369 C182.455588,73.0450994 182.919011,72.643821 183.220858,72.1147017 C183.522704,71.5855824 183.673628,70.9339489 183.673628,70.1598011 C183.673628,69.3856534 183.520929,68.7233665 183.215531,68.1729403 C182.910133,67.6225142 182.444934,67.2034801 181.819934,66.9158381 C181.194934,66.628196 180.388827,66.484375 179.401611,66.484375 Z" id="Combined-Shape" fill="#FFFFFF"></path>
    </g>
</svg>

<svg width="232" height="86" xmlns="http://www.w3.org/2000/svg"><path d="M.113 36.04C1.025 45.847 8.29 52 19.683 52c11.618 0 19.574-6.45 19.574-16.063 0-8.995-4.864-12.642-15.149-14.73l-.507-.103c-.346-.07-.693-.134-2.618-.495-7.81-1.465-10.245-2.73-10.245-6.279 0-3.457 3.36-5.908 8.67-5.908 5.506 0 8.64 2.396 9.23 6.522l.137.953h9.118l-.102-1.205C37.033 5.818 29.558 0 19.865 0 9.18 0 1.571 5.741 1.571 14.33c0 8.627 4.66 11.95 15.097 14.125l.342.072 1.887.38c8.465 1.698 11.101 3.15 11.101 7.395 0 4.341-3.625 7.185-9.95 7.185-6.4 0-9.952-2.62-10.692-7.71l-.139-.95H0l.113 1.213ZM149.098 50.6h8.112v-8.806h-8.112c-8.373 0-14.573-7.545-14.573-16.482 0-8.826 6.758-16.506 15.83-16.506 10.452 0 16.609 5.383 16.609 14.331v27.647h8.832V23.137C175.796 9.05 165.446 0 150.355 0c-14.225 0-24.663 11.86-24.663 25.312 0 13.457 9.725 25.287 23.406 25.287ZM229 19.88C229 8.368 221.437 0 210.113 0c-5.994 0-11.053 2.435-14.005 6.206v-4.82h-9.464v49.4h9.464V21.43c0-7.151 5.294-12.466 12.264-12.466 6.348 0 11.503 4.69 11.503 11.372v30.45H229V19.882ZM82.987 14.182l-11.62 36.606h-10.87l-15.386-49.4h10.126l10.914 37.256L78.104 1.387h9.773l11.866 37.256 11.001-37.256h10.126l-15.48 49.4H94.52L82.987 14.18Zm-60.003 59.91c0 2.35-.439 4.362-1.316 6.035s-2.07 2.953-3.58 3.84c-1.509.888-3.218 1.332-5.129 1.332-1.91 0-3.62-.445-5.13-1.337-1.509-.891-2.702-2.173-3.58-3.846-.876-1.672-1.315-3.68-1.315-6.024 0-2.35.439-4.363 1.316-6.035.877-1.673 2.07-2.953 3.58-3.84 1.509-.889 3.219-1.332 5.13-1.332 1.91 0 3.62.443 5.129 1.331 1.509.888 2.702 2.168 3.58 3.84.876 1.673 1.315 3.685 1.315 6.036Zm-3.974 0c0-1.655-.257-3.052-.772-4.192-.515-1.14-1.227-2.003-2.136-2.589-.91-.586-1.957-.879-3.143-.879-1.186 0-2.234.293-3.143.879-.909.586-1.62 1.449-2.136 2.589-.515 1.14-.772 2.537-.772 4.192 0 1.655.257 3.052.772 4.192.515 1.14 1.227 2.003 2.136 2.589.91.586 1.957.879 3.143.879 1.186 0 2.234-.293 3.143-.88.909-.585 1.62-1.448 2.136-2.588.515-1.14.772-2.537.772-4.192ZM28.38 85V63.182h8.18c1.677 0 3.085.312 4.225.937 1.14.625 2.003 1.483 2.589 2.573.586 1.09.879 2.328.879 3.713 0 1.399-.295 2.642-.885 3.729-.59 1.086-1.46 1.94-2.61 2.562-1.15.621-2.567.932-4.25.932h-5.423v-3.25h4.89c.98 0 1.783-.17 2.408-.51.625-.342 1.088-.81 1.39-1.407.302-.597.453-1.282.453-2.056s-.151-1.456-.453-2.046c-.302-.59-.767-1.049-1.396-1.38-.628-.33-1.436-.495-2.423-.495h-3.622V85h-3.953Zm20.948 0V63.182h14.19v3.313H53.282v5.923h9.502v3.314h-9.502v5.955h10.323V85H49.328Zm37.803-21.818V85h-3.516l-10.28-14.862h-.181V85H69.2V63.182h3.537l10.27 14.872h.192V63.182h3.931Zm26.888 5.998c-.1-.93-.517-1.655-1.252-2.174-.735-.518-1.689-.777-2.86-.777-.824 0-1.531.124-2.12.373-.59.248-1.041.585-1.354 1.012a2.46 2.46 0 0 0-.479 1.46c0 .454.105.848.314 1.182.21.333.496.616.858.847.362.23.763.424 1.204.58.44.156.884.288 1.331.394l2.046.512c.824.192 1.617.45 2.38.777a8.507 8.507 0 0 1 2.057 1.236 5.514 5.514 0 0 1 1.444 1.8c.355.704.532 1.528.532 2.472 0 1.279-.326 2.403-.98 3.372-.653.97-1.596 1.726-2.828 2.27-1.233.543-2.722.814-4.47.814-1.697 0-3.169-.263-4.415-.788-1.247-.526-2.22-1.293-2.92-2.301-.699-1.009-1.077-2.237-1.134-3.686h3.889c.056.76.29 1.392.703 1.896.412.504.95.88 1.614 1.13.664.248 1.408.372 2.232.372.859 0 1.614-.13 2.263-.389.65-.259 1.16-.621 1.53-1.086.369-.466.557-1.01.564-1.636-.007-.568-.174-1.038-.5-1.411-.328-.373-.784-.686-1.37-.938a13.88 13.88 0 0 0-2.05-.676l-2.483-.64c-1.797-.461-3.215-1.162-4.256-2.103-1.04-.942-1.56-2.193-1.56-3.756 0-1.285.35-2.411 1.049-3.377.7-.966 1.653-1.717 2.86-2.253 1.208-.536 2.575-.804 4.102-.804 1.548 0 2.906.268 4.075.804 1.168.536 2.086 1.278 2.754 2.226.667.949 1.012 2.037 1.033 3.266h-3.803Zm28.758 4.91c0 2.352-.439 4.363-1.316 6.036-.877 1.673-2.07 2.953-3.58 3.84-1.509.888-3.219 1.332-5.13 1.332-1.91 0-3.62-.445-5.129-1.337-1.509-.891-2.702-2.173-3.58-3.846-.876-1.672-1.315-3.68-1.315-6.024 0-2.35.439-4.363 1.316-6.035.877-1.673 2.07-2.953 3.58-3.84 1.509-.889 3.218-1.332 5.129-1.332 1.91 0 3.62.443 5.13 1.331 1.509.888 2.702 2.168 3.58 3.84.876 1.673 1.315 3.685 1.315 6.036Zm-3.974 0c0-1.654-.257-3.051-.772-4.191-.515-1.14-1.227-2.003-2.136-2.589-.91-.586-1.957-.879-3.143-.879-1.186 0-2.234.293-3.143.879-.909.586-1.62 1.449-2.136 2.589-.515 1.14-.772 2.537-.772 4.192 0 1.655.257 3.052.772 4.192.515 1.14 1.227 2.003 2.136 2.589.91.586 1.957.879 3.143.879 1.186 0 2.234-.293 3.143-.88.909-.585 1.62-1.448 2.136-2.588.515-1.14.772-2.537.772-4.192Zm23.122-10.908h3.953v14.254c0 1.563-.368 2.937-1.103 4.123-.735 1.186-1.766 2.111-3.095 2.775-1.328.664-2.88.996-4.655.996-1.783 0-3.338-.332-4.666-.996-1.328-.664-2.358-1.589-3.09-2.775-.731-1.186-1.097-2.56-1.097-4.123V63.182h3.952v13.924c0 .909.201 1.719.602 2.429.402.71.968 1.266 1.7 1.667.731.401 1.597.602 2.599.602 1.001 0 1.87-.2 2.605-.602a4.22 4.22 0 0 0 1.699-1.667c.398-.71.596-1.52.596-2.43V63.183Zm49.74 7.361h-3.985a5.013 5.013 0 0 0-.628-1.742 4.698 4.698 0 0 0-2.69-2.098 6.23 6.23 0 0 0-1.87-.272c-1.186 0-2.237.297-3.153.89-.917.593-1.634 1.46-2.152 2.6-.519 1.139-.778 2.53-.778 4.17 0 1.669.261 3.073.783 4.213.522 1.14 1.24 2 2.152 2.578.913.58 1.958.869 3.137.869a6.28 6.28 0 0 0 1.838-.261 5.006 5.006 0 0 0 1.545-.773 4.68 4.68 0 0 0 1.161-1.257 4.806 4.806 0 0 0 .655-1.704l3.985.021a8.648 8.648 0 0 1-2.898 5.321 8.758 8.758 0 0 1-2.791 1.62c-1.066.387-2.248.58-3.548.58-1.917 0-3.63-.444-5.135-1.331-1.505-.888-2.692-2.17-3.558-3.846-.866-1.676-1.3-3.686-1.3-6.03 0-2.35.437-4.363 1.31-6.035.874-1.673 2.064-2.953 3.57-3.84 1.505-.889 3.21-1.332 5.113-1.332 1.215 0 2.344.17 3.388.51 1.044.342 1.974.84 2.791 1.498a8.151 8.151 0 0 1 2.019 2.407c.53.949.875 2.03 1.039 3.244ZM216.943 85V63.182h14.19v3.313h-10.238v5.923h9.503v3.314h-9.503v5.955h10.323V85h-14.275Zm-36.934-21.818c1.676 0 3.084.291 4.224.873 1.14.583 2.003 1.398 2.589 2.445.586 1.048.879 2.268.879 3.66 0 1.399-.297 2.612-.89 3.638-.593 1.026-1.465 1.818-2.615 2.376a6.937 6.937 0 0 1-.416.184L188.5 85h-4.41l-4.289-7.99h-4.022V85h-3.952V63.182h8.182Zm-.607 3.302h-3.623v7.245h3.644c.98 0 1.783-.137 2.408-.41.625-.274 1.088-.675 1.39-1.204.302-.53.453-1.181.453-1.955s-.153-1.437-.458-1.987c-.306-.55-.771-.97-1.396-1.257-.625-.288-1.431-.432-2.418-.432Z" fill="#FFF" fill-rule="evenodd"/></svg>
